packages/core/src/svgs/tokens/branded/SDN.svg

<svg width="24" height="24" viewBox="0 0 24 24" fill="none" xmlns="http://www.w3.org/2000/svg">
<path d="M18.9499 5.90558C8.9833 7.97226 8.41107 11.989 9.37774 13.739C8.79996 12.3611 9.78887 9.05558 18.3833 6.8278L18.9499 5.90558Z" fill="#592BB0"/>
<path d="M8.99981 9.28886C7.85536 11.0556 8.29425 12.2889 8.65536 12.6944C8.07759 8.31663 15.4609 5.91663 19.2276 5.27219L19.7776 4.17773C16.2887 4.58886 10.4221 7.0833 8.99981 9.28886Z" fill="#734BBB"/>
<path d="M7.16654 7.27224C5.21098 10.2833 7.85543 13.1333 9.42206 14.1778C6.99432 11.1667 6.51654 8.90002 8.70543 6.80001C10.8943 4.6889 14.6388 3.19445 17.9832 2.65L16.8666 2C14.4443 2.50001 9.11099 4.25556 7.16098 7.27224H7.16654Z" fill="#BCA1E6"/>
<path d="M18.3671 3C17.2004 3.11667 14.0171 3.87779 10.6449 5.95556C7.32821 8.00557 7.31709 10.4167 7.73932 11.4166C7.70043 10.6833 8.26709 8.75002 10.8393 6.86112C13.4116 4.97223 17.5282 3.98889 19.2615 3.73334L18.3727 3H18.3671Z" fill="#804FC5"/>
<path d="M5.05005 18.0945C15.0167 16.0278 15.589 12.0111 14.6223 10.261C15.2001 11.6389 14.2112 14.9444 5.61671 17.1721L5.05005 18.0945Z" fill="#592BB0"/>
<path d="M15.0002 14.7112C16.1446 12.9445 15.7058 11.7112 15.3447 11.3056C15.9224 15.6835 8.53909 18.0834 4.77242 18.7278L4.22241 19.8223C7.71131 19.4112 13.5779 16.9168 15.0002 14.7112Z" fill="#734BBB"/>
<path d="M16.8336 16.7278C18.789 13.7167 16.1446 10.8666 14.578 9.8222C17.0057 12.8334 17.4835 15.1001 15.2946 17.2001C13.1058 19.3111 9.3613 20.8056 6.01685 21.3501L7.1335 22C9.55576 21.5 14.8891 19.7445 16.8391 16.7278H16.8336Z" fill="#BCA1E6"/>
<path d="M5.63322 21C6.79988 20.8833 9.98325 20.1221 13.3554 18.0444C16.6721 15.9945 16.6833 13.5833 16.261 12.5833C16.2999 13.3166 15.7332 15.25 13.161 17.1388C10.5887 19.0278 6.4721 20.011 4.73877 20.2667L5.62767 21H5.63322Z" fill="#804FC5"/>
</svg>

<svg xmlns="http://www.w3.org/2000/svg" width="24" height="24" fill="none" viewBox="0 0 24 24">
    <path fill="#592BB0" d="M18.95 5.906c-9.967 2.066-10.54 6.083-9.572 7.833-.578-1.378.41-4.683 9.005-6.911z"/>
    <path fill="#734BBB" d="M9 9.289c-1.145 1.767-.706 3-.345 3.405-.577-4.377 6.806-6.777 10.573-7.422l.55-1.094c-3.49.41-9.356 2.905-10.778 5.11"/>
    <path fill="#BCA1E6" d="M7.167 7.272c-1.956 3.011.688 5.861 2.255 6.906C6.994 11.167 6.517 8.9 8.705 6.8c2.19-2.111 5.934-3.606 9.278-4.15L16.867 2c-2.423.5-7.756 2.256-9.706 5.272z"/>
    <path fill="#804FC5" d="M18.367 3c-1.167.117-4.35.878-7.722 2.956-3.317 2.05-3.328 4.46-2.906 5.46-.039-.733.528-2.666 3.1-4.555s6.69-2.872 8.423-3.128L18.372 3z"/>
    <path fill="#592BB0" d="M5.05 18.095c9.967-2.067 10.539-6.084 9.572-7.834.578 1.378-.41 4.683-9.005 6.911z"/>
    <path fill="#734BBB" d="M15 14.711c1.145-1.767.706-3 .345-3.405.577 4.378-6.806 6.777-10.573 7.422l-.55 1.094c3.49-.41 9.356-2.905 10.778-5.11"/>
    <path fill="#BCA1E6" d="M16.834 16.728c1.955-3.011-.69-5.861-2.256-6.906 2.428 3.011 2.906 5.278.717 7.378-2.19 2.111-5.934 3.606-9.278 4.15l1.116.65c2.423-.5 7.756-2.256 9.706-5.272z"/>
    <path fill="#804FC5" d="M5.633 21c1.167-.117 4.35-.878 7.722-2.956 3.317-2.05 3.328-4.46 2.906-5.46.039.733-.528 2.666-3.1 4.555s-6.689 2.872-8.422 3.128l.889.733z"/>
</svg>
